X:1025
T:Polska efter Lörk Jonas
R:Polska
Z:Göran Hed 2009-01-15
O:Hedesunda, Gästrikland
S:efter Lörk-Jonas
S:efter Menlösen
M:3/4
L:1/16
K:G
D2G2 BABd gfgb|b2a2 fefa agfg|e2c2 cBcd efge|gfge d2c2 B2A2|
D2G2 BABd gfgb|b2a2 fefa agfg|e2c2 c2B2 B2(3ABc|A2G2 G8:|
K:D
|:d2g2 g2g2 agfg|a2f2 f2d2 d2ef|agfg e2c2 c2A2|A2g2 agfg agfg|
a2f2 f2d2 d2ef|agfg e2b2 g2e2|dcBc c2d2 d2d2|cAce e2d2 d4:|

(:musicend:)

(:music:)
